X: 29
T: Cantiga 29: Nas mentes senpre ter
N: 
B:Cantigas de Santa Maria
F:http://www.pbm.com/~lindahl/cantigas/facsimiles/E/103small.html
F:http://www.pbm.com/~lindahl/cantigas/facsimiles/To/bob027small.gif
F:http://www.pbm.com/~lindahl/cantigas/facsimiles/To/bob028small.gif
Z:Ali Corbin <ali.corbin:gmail.com>
M: 3/4
L: 1/4
Q: 1/4=200
K: G mixolydian
V:1
%Staff 1
%%MIDI program 74
%
   G (AB)|  c   A2| B  c2|d3 | d (dc)| A (B>c)| A   G2|(A/G/) F2 |
w:Nas men-*tes sen-pre te-er  de- ve-*mo- las* sas fei- tu-* ras
   G (AB)|  c    A2 | B c2|d3 | d (dc)| A (B>c)|A  (GF)| G G2 || 
w:da  Vir-*gen, pois re-ce-ber  as fo-*ron as* ped-ras* du-ras.
%
   d   (dc) | A (B>c)|A2(G/4F/4G/4A/4)|A3|d (dc)|  A (B>c)|A2 (G/F/)|G3|
w:Per quant'* eu di-*zer o-***  ý  a  mui-*tos que* fo- ron* y,
  G  (AB)| c  A2| B c2|d3| d (dc)|A (B>c)| A  G2|(A/G/) F2 |
w:na san-*ta Ges-se-ma-ni fo-ron* a- cha-*das fi- gu-* ras
  G (AB)| c  A2| B    c2|d3| d  (dc)| A (B>c)| A (GF) | G G2||
w:da Ma-*dre de Deus, as-si que non* fo- ron* de  pin-*tu-ras.
%
%%begintext center
%%
%%
%%Esta é como Santa Maria fez parecer nas pedras omages a ssa semellança.
%%
%%
%%Nas mentes sempre teer
%%devemo-las sas feituras
%%da Virgen, pois receber
%%as foron as pedras duras.
%%
%%
%%endtext  
W:Per quant' eu dizer oý
W:a muitos que foron y,
W:na santa Gessemani
W:foron achadas figuras
W:da Madre de Deus, assi
W:que non foron de pinturas.
W:
W:Nas mentes sempre ter...
W: 
W:Nen ar entalladas non
W:foron, se Deus me perdon,
W:e avia y fayçon
W:da Sennor das aposturas
W:con sseu Fill', e per razon
W:feitas ben per sas mesuras.
W:
W:Nas mentes sempre ter...
W: 
W:Poren as resprandecer
W:fez tan muit' e parecer,
W:per que devemos creer
W:que é Sennor das naturas,
W:que nas cousas á poder
W:de fazer craras d' escuras.
W:
W:Nas mentes sempre ter...
W: 
W:Deus x' as quise figurar
W:en pedra por nos mostrar
W:que a ssa Madre onrrar
W:deven todas creaturas,
W:pois deceu carne fillar
W:en ela das sas alturas.
W:
W:Nas mentes senpre ter...


%%landscape 0
